assets/icons/insert/image-filled.svg

<?xml version="1.0" encoding="UTF-8" standalone="no"?>
<svg
   viewBox="0 0 24 24"
   height="24"
   id="svg7384"
   version="1.1"
   width="24"
   sodipodi:docname="image-filled.svg"
   inkscape:version="1.2 (1:1.2.1+202207142221+cd75a1ee6d)"
   xmlns:inkscape="http://www.inkscape.org/namespaces/inkscape"
   xmlns:sodipodi="http://sodipodi.sourceforge.net/DTD/sodipodi-0.dtd"
   xmlns="http://www.w3.org/2000/svg"
   xmlns:svg="http://www.w3.org/2000/svg"
   xmlns:rdf="http://www.w3.org/1999/02/22-rdf-syntax-ns#"
   xmlns:cc="http://creativecommons.org/ns#"
   xmlns:dc="http://purl.org/dc/elements/1.1/">
  <sodipodi:namedview
     id="namedview24"
     pagecolor="#ffffff"
     bordercolor="#666666"
     borderopacity="1.0"
     inkscape:pageshadow="2"
     inkscape:pageopacity="0.0"
     inkscape:pagecheckerboard="0"
     showgrid="true"
     inkscape:snap-page="true"
     inkscape:zoom="28"
     inkscape:cx="14.642857"
     inkscape:cy="10.035714"
     inkscape:window-width="1920"
     inkscape:window-height="1043"
     inkscape:window-x="0"
     inkscape:window-y="0"
     inkscape:window-maximized="1"
     inkscape:current-layer="svg7384"
     inkscape:showpageshadow="2"
     inkscape:deskcolor="#d1d1d1">
    <inkscape:grid
       type="xygrid"
       id="grid1105" />
    <inkscape:grid
       dotted="true"
       spacingx="0.5"
       spacingy="0.5"
       empspacing="10"
       type="xygrid"
       id="grid841" />
  </sodipodi:namedview>
  <metadata
     id="metadata20854">
    <rdf:RDF>
      <cc:Work
         rdf:about="">
        <dc:format>image/svg+xml</dc:format>
        <dc:type
           rdf:resource="http://purl.org/dc/dcmitype/StillImage" />
      </cc:Work>
    </rdf:RDF>
  </metadata>
  <defs
     id="defs7386">
    <linearGradient
       id="linearGradient5606"
       inkscape:swatch="solid">
      <stop
         id="stop5608"
         offset="0"
         style="stop-color:#000000;stop-opacity:1;" />
    </linearGradient>
    <linearGradient
       id="linearGradient4526"
       inkscape:swatch="solid">
      <stop
         id="stop4528"
         offset="0"
         style="stop-color:#ffffff;stop-opacity:1;" />
    </linearGradient>
    <linearGradient
       id="linearGradient3600-4"
       inkscape:swatch="gradient">
      <stop
         id="stop3602-7"
         offset="0"
         style="stop-color:#f4f4f4;stop-opacity:1" />
      <stop
         id="stop3604-6"
         offset="1"
         style="stop-color:#dbdbdb;stop-opacity:1" />
    </linearGradient>
  </defs>
  <path
     id="path310"
     style="color:#000000;fill:#808080"
     d="M 7.4550781 3.0019531 C 6.4865002 3.0109331 5.7372573 3.0752233 5.1171875 3.4472656 C 4.7038076 3.6952937 4.3972493 4.1031746 4.2285156 4.609375 C 4.0597823 5.1155754 4 5.7241785 4 6.5019531 L 4 12.501953 C 4 13.279727 4.0597826 13.888332 4.2285156 14.394531 C 4.3972493 14.900733 4.7038076 15.306658 5.1171875 15.554688 C 5.9439473 16.050742 7.000006 16.001953 8.5 16.001953 L 14.5 16.001953 C 15.999996 16.001953 17.056053 16.05074 17.882812 15.554688 C 18.296194 15.306658 18.602753 14.900733 18.771484 14.394531 C 18.940218 13.888332 19 13.279727 19 12.501953 L 19 6.5019531 C 19 5.7241785 18.94022 5.1155754 18.771484 4.609375 C 18.602753 4.1031746 18.296194 3.6952937 17.882812 3.4472656 C 17.056054 2.9512098 15.999996 3.0019531 14.5 3.0019531 L 8.5 3.0019531 C 8.1250016 3.0019531 7.7779375 2.9989631 7.4550781 3.0019531 z M 15 6 A 1 1 0 0 1 16 7 A 1 1 0 0 1 15 8 A 1 1 0 0 1 14 7 A 1 1 0 0 1 15 6 z M 9.5 8 L 11 10.5 L 12.5 9 L 15 13 L 7 13 L 9.5 8 z " />
  <g
     id="layer9"
     label="status"
     style="display:inline;stroke-width:0.8"
     transform="matrix(1.25,0,0,1.25,-514.25025,185.75)" />
  <g
     id="layer2"
     style="display:inline;stroke-width:0.8"
     transform="matrix(1.25,0,0,1.25,-213,-273)" />
  <g
     id="layer4"
     style="display:inline;stroke-width:0.8"
     transform="matrix(1.25,0,0,1.25,-213,-273)" />
  <g
     id="g1812"
     style="display:inline;stroke-width:0.8"
     transform="matrix(1.25,0,0,1.25,-213,-273)" />
  <g
     id="g6217"
     style="display:inline;stroke-width:0.8"
     transform="matrix(1.25,0,0,1.25,-213,-273)" />
  <g
     id="layer3"
     style="display:inline;stroke-width:0.8"
     transform="matrix(1.25,0,0,1.25,-213,-273)" />
  <g
     id="g1833"
     style="display:inline;stroke-width:0.8"
     transform="matrix(1.25,0,0,1.25,-213,-273)" />
  <g
     id="layer1"
     style="display:inline;stroke-width:0.8"
     transform="matrix(1.25,0,0,1.25,-195.77274,-272.5016)">
    <path
       style="color:#000000;display:inline;overflow:visible;visibility:visible;opacity:1;fill:#808080;fill-opacity:1;fill-rule:nonzero;stroke:none;stroke-width:0.599882;marker:none;enable-background:accumulate"
       d="m 167.99999,231.60139 -4.36361,0.001 c 0.30341,0.66365 0.64289,1.33926 1.01795,2.02713 0.37595,0.68141 0.76372,1.33869 1.16367,1.97142 0.39196,-0.63273 0.77602,-1.29001 1.15197,-1.97142 0.37527,-0.68825 0.71852,-1.36424 1.03003,-2.02824 z"
       id="path6606" />
  </g>
</svg>

<svg height="24" width="24" xmlns="http://www.w3.org/2000/svg"><path style="color:#000;fill:gray" d="M7.455 3.002c-.968.009-1.718.073-2.338.445-.413.248-.72.656-.888 1.162C4.059 5.116 4 5.724 4 6.502v6c0 .778.06 1.386.229 1.893.168.506.475.912.888 1.16.827.496 1.883.447 3.383.447h6c1.5 0 2.556.049 3.383-.447.413-.248.72-.654.888-1.16.17-.507.229-1.115.229-1.893v-6c0-.778-.06-1.386-.229-1.893-.168-.506-.475-.914-.888-1.162-.827-.496-1.883-.445-3.383-.445h-6c-.375 0-.722-.003-1.045 0zM15 6a1 1 0 0 1 1 1 1 1 0 0 1-1 1 1 1 0 0 1-1-1 1 1 0 0 1 1-1zM9.5 8l1.5 2.5L12.5 9l2.5 4H7l2.5-5z"/><path style="color:#000;display:inline;overflow:visible;visibility:visible;fill:gray;fill-opacity:1;fill-rule:nonzero;stroke:none;stroke-width:.749853;marker:none;enable-background:accumulate" d="M14.227 17H8.772c.38.83.804 1.675 1.272 2.535a48.4 48.4 0 0 0 1.455 2.463c.49-.79.97-1.613 1.44-2.463a46.7 46.7 0 0 0 1.288-2.536z"/></svg>
